modules/feathericon/icons/picture.svg

<?xml version="1.0" encoding="UTF-8"?>
<svg width="24px" height="24px" viewBox="0 0 24 24" version="1.1" xmlns="http://www.w3.org/2000/svg" xmlns:xlink="http://www.w3.org/1999/xlink">
    <!-- Generator: sketchtool 52.2 (67145) - http://www.bohemiancoding.com/sketch -->
    <title>picture</title>
    <desc>Created with sketchtool.</desc>
    <g id="text-edit" stroke="none" stroke-width="1" fill="none" fill-rule="evenodd">
        <g id="picture" fill="#000000" fill-rule="nonzero">
            <path d="M4,6 L4,18 L20,18 L20,6 L4,6 Z M4,4 L20,4 C21.1045695,4 22,4.8954305 22,6 L22,18 C22,19.1045695 21.1045695,20 20,20 L4,20 C2.8954305,20 2,19.1045695 2,18 L2,6 C2,4.8954305 2.8954305,4 4,4 Z M7.5,11 C8.32842712,11 9,10.3284271 9,9.5 C9,8.67157288 8.32842712,8 7.5,8 C6.67157288,8 6,8.67157288 6,9.5 C6,10.3284271 6.67157288,11 7.5,11 Z M7,14 L9,12 L11,14 L15,10 L18,13 L18,16 L7,16 L7,14 Z" id="Shape"></path>
        </g>
    </g>
</svg>

<svg width="24" height="24" viewBox="0 0 24 24" xmlns="http://www.w3.org/2000/svg"><path d="M4 6v12h16V6H4zm0-2h16a2 2 0 0 1 2 2v12a2 2 0 0 1-2 2H4a2 2 0 0 1-2-2V6a2 2 0 0 1 2-2zm3.5 7a1.5 1.5 0 1 0 0-3 1.5 1.5 0 0 0 0 3zM7 14l2-2 2 2 4-4 3 3v3H7v-2z" fill="#000" fill-rule="nonzero"/></svg>
